images/yes-no/arrow-down-2.svg

<svg width="75" height="157" viewBox="0 0 75 157" fill="none" xmlns="http://www.w3.org/2000/svg">
<path fill-rule="evenodd" clip-rule="evenodd" d="M0.126587 0.523874C6.67506 6.39692 12.2105 12.7037 17.3118 19.173C25.2532 29.2566 31.5846 39.9365 36.4508 51.2308C41.9862 64.0973 45.5861 77.6324 47.8835 91.5289C50.1628 105.371 51.1939 119.521 51.013 133.688C50.9949 134.953 50.8864 136.2 50.9768 137.465C51.0311 138.17 51.1215 138.839 51.2481 139.507C46.2192 131.05 39.9602 118.961 34.7684 109.781C31.3314 103.727 28.3285 99.0103 27.1345 97.0225C26.9356 96.643 26.4652 96.4804 26.0672 96.6792C25.6874 96.8599 25.5246 97.3478 25.7235 97.7273C26.5919 99.8958 28.4551 105.154 31.1686 111.551C33.8097 117.786 37.3191 124.996 40.5209 131.791C44.6454 140.537 48.5709 148.398 50.8683 151.976C51.1758 152.446 51.5919 152.789 51.7185 153.205C52.2973 155.012 52.9124 155.12 53.2199 155.916C54.1425 157.199 55.4088 156.711 56.4399 156.928C58.3755 157.343 60.0578 155.807 61.3422 153.711C62.2286 152.247 62.1924 148.507 62.8617 146.717C65.2496 140.176 67.547 133.526 69.3379 126.731C70.9659 120.641 72.2684 114.461 73.3176 108.263C74.0231 104.106 74.5115 99.9681 75 95.8117C74.9638 95.4503 75.0723 95.0889 74.9095 94.7456C74.0593 92.83 73.7337 93.4987 72.3227 91.9446C72.3589 91.7458 72.2141 91.5651 72.0332 91.5289C71.8343 91.4928 71.6534 91.6193 71.6172 91.8181C69.7539 92.7758 69.6816 92.0711 68.2163 93.589C67.9811 93.824 67.945 94.1673 67.7822 94.4745C65.8104 102.679 63.2959 110.811 60.8357 119.015C60.0759 121.509 59.3343 124.002 58.5745 126.496C58.9725 114.84 58.5383 103.167 56.856 91.7458C55.4269 81.9694 53.1295 72.3557 49.8191 63.1396C44.356 47.8335 36.4327 33.3768 25.2351 20.8536C18.2525 13.0651 9.94931 6.23428 0.48838 0.0540302C0.343666 -0.0363244 0.162766 -0.0182534 0.0542297 0.108243C-0.0362244 0.25281 -0.0181274 0.433519 0.126587 0.523874Z" fill="#FF5100"/>
</svg>

<svg width="75" height="157" fill="none" xmlns="http://www.w3.org/2000/svg"><path fill-rule="evenodd" clip-rule="evenodd" d="M.127.524c6.548 5.873 12.083 12.18 17.185 18.649 7.941 10.084 14.273 20.764 19.139 32.058 5.535 12.866 9.135 26.401 11.432 40.298 2.28 13.842 3.31 27.992 3.13 42.159-.018 1.265-.127 2.512-.036 3.777.054.705.145 1.374.271 2.042-5.029-8.457-11.288-20.546-16.48-29.726-3.437-6.054-6.44-10.77-7.634-12.759a.8.8 0 00-1.067-.343.778.778 0 00-.343 1.048c.868 2.169 2.731 7.427 5.445 13.824 2.64 6.235 6.15 13.445 9.352 20.24 4.124 8.746 8.05 16.607 10.347 20.185.308.47.724.813.85 1.229.58 1.807 1.194 1.915 1.502 2.711.922 1.283 2.189.795 3.22 1.012 1.936.415 3.618-1.121 4.902-3.217.887-1.464.85-5.204 1.52-6.994 2.388-6.541 4.685-13.191 6.476-19.986 1.628-6.09 2.93-12.27 3.98-18.468.705-4.157 1.194-8.295 1.682-12.451-.036-.362.072-.723-.09-1.066-.85-1.916-1.176-1.247-2.587-2.801a.366.366 0 00-.29-.416.353.353 0 00-.416.29c-1.863.957-1.935.252-3.4 1.77-.236.235-.272.578-.435.886-1.972 8.204-4.486 16.336-6.946 24.54-.76 2.494-1.502 4.987-2.261 7.481.397-11.656-.037-23.329-1.719-34.75-1.43-9.777-3.727-19.39-7.037-28.606-5.463-15.306-13.386-29.763-24.584-42.286C18.253 13.065 9.95 6.234.488.054a.333.333 0 00-.434.054c-.09.145-.072.326.073.416z" fill="#FF5100"/></svg>
